X:469
T:Mazurka Unplugged
R:Mazurka ternary
C:Knud Seckel
N:original url: www.wolfram.claranet.de
Z:W.Dietz from photocopy
M:3/4
L:1/8
K:Ddor
DC DE FE|D2A4|G2E2FE|FE DC DE|DC DE FE|D2A4|G2E2FE|1 D6:|2 D4 DF|
|:A2 GA BA|G2-GF GA|B2c2 BG|AG FE FG|A2 GA BA|G2-GF GA|B2c2 BG|1 A4DF:|2 A2-AG FE|]
